!!!COM: Bach, Johann Sebastian
!!!CDT: 1685/3//-1750/7/28/
!!!OTL@@DE: Lobt Gott, ihr Christen, allzugleich
!!!AGN: 4-Part Chorale
!!!SCT: BH 054
!!!SCT: BWV 151
**harm	**root	**kern	**kern	**kern	**kern
!	!	!bass	!tenor	!alto	!soprno
*	*Iorgan	*Iorgan	*Iorgan	*Iorgan	*Iorgan
*	*	*clefF4	*clefF4	*clefG2	*clefG2
*k[f#c#g#d#a#e#]	*k[f#c#g#d#a#e#]	*k[f#c#g#d#a#e#]	*k[f#c#g#d#a#e#]	*k[f#c#g#d#a#e#]	*k[f#c#g#d#a#e#]
*F#:	*F#:	*F#:	*F#:	*F#:	*F#:
*M4/4	*M4/4	*M4/4	*M4/4	*M4/4	*M4/4
*met(c)	*met(c)	*met(c)	*met(c)	*met(c)	*met(c)
*MM60	*MM60	*MM60	*MM60	*MM60	*MM60
I	4GG	4F#	4A#	4c#	4f#
=1	=1	=1	=1	=1	=1
Vb	4DD	4E#	4G#	8c#	4cc#
.	.	.	.	8d#	.
V7	4DD	4C#	8c#	4e#	4cc#
.	.	.	8B	.	.
I	4GG	8F#	8A#	4f#	4cc#
.	.	8G#	8B	.	.
Ib	4GG	4A#	4c#	4f#	4cc#
=2	=2	=2	=2	=2	=2
IV	4CC	4BB	8B	4f#	4dd#
.	.	.	8A#	.	.
V7	4DD	4C#	8G#	4e#	8cc#
.	.	.	8c#	.	8b
I;	4GG;	4F#;	4c#;	4f#;	4a#;
Vb	4DD	4E#	4c#	4g#	4g#
=3	=3	=3	=3	=3	=3
vi	4EE	4D#	4F#	4f#	8a#
.	.	.	.	.	8b#
V	4DD	4C#	4G#	4e#	4cc#
vib	4EE	4F#	4A#	8d#	4dd#
.	.	.	.	8e#	.
V7/V	4AA	4G#	4B#	4f#	4dd#
=4	=4	=4	=4	=4	=4
V;	2DD;	2C#;	2G#	2e#;	2cc#;
r	4r	4r	4r	4r	4r
V7b	4DD	4E#	8c#	4g#	4cc#
.	.	.	8B	.	.
=5	=5	=5	=5	=5	=5
I	4GG	4F#	4A#	4f#	4cc#
V7c	4DD	4G#	4B	4e#	4cc#
Ib	4GG	4A#	4c#	4f#	4cc#
vi	4EE	4D#	4d#	4f#	8a#
.	.	.	.	.	8b
!!linebreak: 2
=6	=6	=6	=6	=6	=6
Ib	4GG	4AA#	4c#	4f#	4cc#
iib	4AA	4BB	4d#	8g#	8b
.	.	.	.	8f#	8a#
V;	4DD;	4C#;	4G#;	4e#;	4g#;
iii	4BB	4AA#	4A#	4e#	4cc#
=7	=7	=7	=7	=7	=7
IV7	8CC	8D#	8A#	8f#	4b
viio	8FF#	8E#	8G#	4g#	.
I	4GG	4F#	8A#	.	4a#
.	.	.	8B	[8f#	.
V	4DD	4C#	4c#	8f#]	4g#
.	.	.	.	8d#	.
viio7/VI	4DD#	4C##	4B	4e#	4g#
=8	=8	=8	=8	=8	=8
vi	2EE	8D#	4A#	2f#	8f#
.	.	8E#	.	.	8g#
.	.	8F#	4d#	.	8a#
.	.	8G#	.	.	8b
iii;	4BB;	4A#;	4c#;	4e#;	4cc#;
I	4GG	4F#	4A#	4f#	4cc#
=9	=9	=9	=9	=9	=9
IVb	4CC	4D#	8B	4f#	4b
.	.	.	8c#	.	.
vi7d	4EE	8C#	4d#	4f#	8a#
.	.	8BB	.	.	8g#
Ic	4GG	4C#	4c#	4f#	4a#
V7	4DD	4C#	8c#	4e#	4g#
.	.	.	8B	.	.
=10	=10	=10	=10	=10	=10
I;	2.GG;	2.FF#;	2.A#;	2.c#;	2.f#;
==	==	==	==	==	==
*-	*-	*-	*-	*-	*-
!!chor2scor: -l 2 -s 0.6 -o %b.pmx
!!!YEC: Copyright 2001 by Craig Stuart Sapp
!!!license: GNU General Public License (http://www.gnu.org/copyleft/gpl.html)
!!!SMA: 371 Bach Chorales, edited by Ludwig Erk, C.F. Peters
!!!PDT: 1850, 1865
!!!ONB: Harmony and Root analysis done manually by Craig Sapp
